X: 1
T: Lookout Pack, The
Z: Thing
S: https://thesession.org/tunes/15442#setting28905
R: polka
M: 2/4
L: 1/8
K: Edor
|: E2 BA | G2 E2 | B2 A2 | B2 E2 | E2 BA | G2 E2 | d2 E2 | c2 d2 |
E2 E2 | BA G2 | E2 B2 |1 A2 BA | G2 E2 | BA G2 | A4 | AB AG :|
|2 A2 Bd | ag eg |fe ag | e2 ba | g4 ||
|: a3 b | ag e2 | ef g2 | fe (a2 | a2) ba | g(e e)g | f(e e)d | B3 f |
g(f f)d | e4 | fg f2 | d(e e2) | ag (e2 | e)g ag |1 e2 ba | g4 :|2 e2 gf | e2 dB |]
